tools/download-figma-icons/icons/solid/danger-electricity.svg

<svg width="24" height="24" viewBox="0 0 24 24" fill="none" xmlns="http://www.w3.org/2000/svg">
<path d="M23.7183 19.2L13.9531 2.625C13.5775 1.875 12.8263 1.5 12 1.5C11.1737 1.5 10.4977 1.875 10.0469 2.625L0.28169 19.2C-0.0938967 19.875 -0.0938967 20.7 0.28169 21.375C0.732394 22.125 1.40845 22.5 2.23474 22.5H21.7653C22.5915 22.5 23.2676 22.125 23.7183 21.375C24.0939 20.7 24.0939 19.875 23.7183 19.2ZM14.9296 13.275L11.3239 19.35C11.1737 19.65 10.723 19.5 10.7981 19.125L11.3991 15.225H9.37089C9.07042 15.225 8.92019 14.925 8.92019 14.7L9.89671 9.3C9.89671 9.075 10.1221 8.925 10.3474 8.925H13.5775C13.8779 8.925 14.1033 9.3 13.9531 9.6L12.7512 12.6H14.554C14.9296 12.6 15.1549 12.975 14.9296 13.275Z" fill="black"/>
</svg>

<svg width="24" height="24" viewBox="0 0 24 24" fill="none" xmlns="http://www.w3.org/2000/svg"><path d="M23.718 19.2 13.953 2.625C13.578 1.875 12.826 1.5 12 1.5c-.826 0-1.502.375-1.953 1.125L.282 19.2a2.24 2.24 0 0 0 0 2.175c.45.75 1.126 1.125 1.953 1.125h19.53c.826 0 1.503-.375 1.953-1.125a2.24 2.24 0 0 0 0-2.175Zm-8.788-5.925-3.606 6.075c-.15.3-.601.15-.526-.225l.601-3.9H9.371c-.3 0-.45-.3-.45-.525l.976-5.4c0-.225.225-.375.45-.375h3.23c.3 0 .526.375.376.675l-1.202 3h1.803c.376 0 .6.375.376.675Z" fill="currentColor"/></svg>
